X: 35132
T: Roman Wall, The
R: jig
M: 6/8
K: Gmajor
D|GAG BAG|Bdg dBG|c2e dBG|FAA A2D|
GAG BAG|Bdg dBG|cde dBG|AGF G2:|
d|g2g fed|efg dBG|cde dBG|F2A A2d|
g2g fed|efg dBG|cde dBG|AGF G2d|
g2g fed|efg dBG|cde dBG|F2A A2D|
GAG BAG|Bdg dBG|cde dBG|AGF G2||

